Obsidian/actions/24s/distribute-graph.svg

<svg height="24" viewBox="0 0 24 24" width="24" xmlns="http://www.w3.org/2000/svg"><path d="m7.4921875-.00390625.0078125.00390625a1.5 1.5 0 0 0 -1.5 1.5 1.5 1.5 0 0 0 .1132812.5703125l-3.8925781 3.1152344a1.5 1.5 0 0 0 -.7207031-.1855469 1.5 1.5 0 0 0 -1.5 1.5 1.5 1.5 0 0 0 1 1.4121094v5.1757816a1.5 1.5 0 0 0 -1 1.412109 1.5 1.5 0 0 0 1.5 1.5 1.5 1.5 0 0 0 1.4121094-1h4.1757812a1.5 1.5 0 0 0 1.4121094 1 1.5 1.5 0 0 0 1.5-1.5 1.5 1.5 0 0 0 -.1855469-.716797l3.1171879-3.8964842a1.5 1.5 0 0 0 .568359.1132812 1.5 1.5 0 0 0 1.5-1.5 1.5 1.5 0 0 0 -1.5-1.5 1.5 1.5 0 0 0 -.583984.1191406l-4.0937504-4.9121094a1.5 1.5 0 0 0 .1699219-.7109374 1.5 1.5 0 0 0 -1.5-1.50000005zm-.7109375 2.82031245a1.5 1.5 0 0 0 .71875.1835938 1.5 1.5 0 0 0 .5820312-.1191406l4.0957028 4.9140625a1.5 1.5 0 0 0 -.179687.7109375 1.5 1.5 0 0 0 .185547.71875l-3.1152346 3.8945316a1.5 1.5 0 0 0 -.5703125-.111329 1.5 1.5 0 0 0 -1.4121094 1h-4.1757813a1.5 1.5 0 0 0 -.9101562-.910156v-5.175781a1.5 1.5 0 0 0 1-1.4121094 1.5 1.5 0 0 0 -.1132812-.5683594l3.8945312-3.1152343z" fill="#bebebe" transform="translate(4 4)"/></svg>

<svg xmlns="http://www.w3.org/2000/svg" width="24" height="24" viewBox="0 0 24 24">
 <defs>
  <style id="current-color-scheme" type="text/css">
   .ColorScheme-Text { color:#bebebe; } .ColorScheme-Highlight { color:#4285f4; }
  </style>
 </defs>
 <path style="fill:currentColor" class="ColorScheme-Text" d="M 7.4921875 -0.00390625 L 7.5 0 A 1.5 1.5 0 0 0 6 1.5 A 1.5 1.5 0 0 0 6.1132812 2.0703125 L 2.2207031 5.1855469 A 1.5 1.5 0 0 0 1.5 5 A 1.5 1.5 0 0 0 0 6.5 A 1.5 1.5 0 0 0 1 7.9121094 L 1 13.087891 A 1.5 1.5 0 0 0 0 14.5 A 1.5 1.5 0 0 0 1.5 16 A 1.5 1.5 0 0 0 2.9121094 15 L 7.0878906 15 A 1.5 1.5 0 0 0 8.5 16 A 1.5 1.5 0 0 0 10 14.5 A 1.5 1.5 0 0 0 9.8144531 13.783203 L 12.931641 9.8867188 A 1.5 1.5 0 0 0 13.5 10 A 1.5 1.5 0 0 0 15 8.5 A 1.5 1.5 0 0 0 13.5 7 A 1.5 1.5 0 0 0 12.916016 7.1191406 L 8.8222656 2.2070312 A 1.5 1.5 0 0 0 8.9921875 1.4960938 A 1.5 1.5 0 0 0 7.4921875 -0.00390625 z M 6.78125 2.8164062 A 1.5 1.5 0 0 0 7.5 3 A 1.5 1.5 0 0 0 8.0820312 2.8808594 L 12.177734 7.7949219 A 1.5 1.5 0 0 0 11.998047 8.5058594 A 1.5 1.5 0 0 0 12.183594 9.2246094 L 9.0683594 13.119141 A 1.5 1.5 0 0 0 8.4980469 13.007812 A 1.5 1.5 0 0 0 7.0859375 14.007812 L 2.9101562 14.007812 A 1.5 1.5 0 0 0 2 13.097656 L 2 7.921875 A 1.5 1.5 0 0 0 3 6.5097656 A 1.5 1.5 0 0 0 2.8867188 5.9414062 L 6.78125 2.8261719 L 6.78125 2.8164062 z" transform="translate(4 4)"/>
</svg>
